sources/design/Outline/caret.svg

<svg:svg xmlns:cc="http://creativecommons.org/ns#" xmlns:dc="http://purl.org/dc/elements/1.1/" xmlns:inkscape="http://www.inkscape.org/namespaces/inkscape" xmlns:rdf="http://www.w3.org/1999/02/22-rdf-syntax-ns#" xmlns:sodipodi="http://sodipodi.sourceforge.net/DTD/sodipodi-0.dtd" xmlns:svg="http://www.w3.org/2000/svg" xml:space="preserve" width="1000" height="1000" version="1.1" style="clip-rule:evenodd;fill-rule:evenodd;image-rendering:optimizeQuality;shape-rendering:geometricPrecision;text-rendering:geometricPrecision" viewBox="0 0 1000 1000" id="svg10" sodipodi:docname="caret.svg" inkscape:version="1.1.1 (3bf5ae0d25, 2021-09-20)"><svg:text text-anchor="middle" x="153.92377" y="106.98389" id="top" inkscape:label="top" style="clip-rule:evenodd;fill-rule:evenodd;image-rendering:optimizeQuality;shape-rendering:geometricPrecision;text-rendering:geometricPrecision">✛</svg:text><svg:metadata id="metadata14"><rdf:RDF><cc:Work rdf:about=""><dc:format>image/svg+xml</dc:format><dc:type rdf:resource="http://purl.org/dc/dcmitype/StillImage" /><dc:title /></cc:Work></rdf:RDF></svg:metadata><sodipodi:namedview pagecolor="#ffffff" bordercolor="#666666" borderopacity="1" objecttolerance="10" gridtolerance="10" guidetolerance="10" inkscape:pageopacity="0" inkscape:pageshadow="2" inkscape:window-width="1920" inkscape:window-height="1009" id="namedview12" showgrid="false" inkscape:zoom="1.2005384" inkscape:cx="92.874997" inkscape:cy="84.128921" inkscape:window-x="0" inkscape:window-y="60" inkscape:window-maximized="1" inkscape:current-layer="svg10" showguides="true" inkscape:guide-bbox="true" inkscape:document-rotation="0" inkscape:pagecheckerboard="0"><sodipodi:guide position="0,1000" orientation="0,1" id="guide16" inkscape:label="" inkscape:locked="true" inkscape:color="rgb(0,0,255)" /><sodipodi:guide position="1763.3122,2036.1693" orientation="1000,0" id="guide18" /><sodipodi:guide position="0,200" orientation="0,1" id="guide20" inkscape:label="base" inkscape:locked="true" inkscape:color="rgb(0,0,255)" /><inkscape:grid type="xygrid" id="grid24" originx="-473.37552" originy="-489.69235" /><sodipodi:guide position="0,0" orientation="0,1" id="guide34" inkscape:label="bottom" inkscape:locked="true" inkscape:color="rgb(0,0,255)" /><sodipodi:guide position="225.05109,1693.3186" orientation="0,1" id="guide44" inkscape:label="" inkscape:locked="false" inkscape:color="rgb(0,0,255)" /><sodipodi:guide position="0,900" orientation="0,1" id="guide46" inkscape:label="" inkscape:locked="true" inkscape:color="rgb(0,0,255)" /><sodipodi:guide position="315.41807,1130.6747" orientation="1,0" id="guide841" inkscape:label="width" />    <sodipodi:guide position="-210.85892,799.74293" orientation="0,-1" id="guide856" /></sodipodi:namedview>
 <svg:defs id="defs4"><inkscape:path-effect effect="fillet_chamfer" id="path-effect861" is_visible="true" lpeversion="1" satellites_param="F,0,0,1,0,11.442237,0,1 @ F,0,1,1,0,11.442237,0,1 @ F,0,0,1,0,0,0,1 @ F,0,0,1,0,0,0,1 @ F,0,1,1,0,11.442237,0,1 @ F,0,1,1,0,11.442237,0,1 @ F,0,0,1,0,0,0,1 @ F,0,1,1,0,11.442237,0,1 @ F,0,0,1,0,0,0,1" unit="px" method="auto" mode="F" radius="0" chamfer_steps="1" flexible="false" use_knot_distance="true" apply_no_radius="true" apply_with_radius="true" only_selected="false" hide_knots="false" /><inkscape:path-effect effect="fillet_chamfer" id="path-effect862" is_visible="true" lpeversion="1" satellites_param="F,0,0,1,0,25.783993,0,1 @ F,0,0,1,0,26.579387,0,1 @ F,0,0,1,0,0,0,1 @ F,0,0,1,0,27.57576,0,1 @ F,0,0,1,0,29.413045,0,1 @ F,0,0,1,0,0,0,1 @ F,0,0,1,0,39.985442,0,1 @ F,0,0,1,0,0,0,1" unit="px" method="auto" mode="F" radius="0" chamfer_steps="1" flexible="false" use_knot_distance="true" apply_no_radius="true" apply_with_radius="true" only_selected="true" hide_knots="false" /><inkscape:path-effect effect="spiro" id="path-effect860" is_visible="true" lpeversion="1" /><inkscape:path-effect effect="spiro" id="path-effect857" is_visible="true" lpeversion="1" /><inkscape:path-effect effect="spiro" id="path-effect137" is_visible="true" lpeversion="1" /><inkscape:path-effect effect="spiro" id="path-effect133" is_visible="true" lpeversion="1" /><inkscape:path-effect effect="spiro" id="path-effect114" is_visible="true" lpeversion="1" /><inkscape:path-effect effect="spiro" id="path-effect853" is_visible="true" lpeversion="1" /><inkscape:path-effect effect="spiro" id="path-effect928" is_visible="true" lpeversion="1" /><inkscape:path-effect effect="spiro" id="path-effect921" is_visible="true" lpeversion="1" /><inkscape:path-effect effect="spiro" id="path-effect917" is_visible="true" lpeversion="1" /><inkscape:path-effect effect="spiro" id="path-effect849" is_visible="true" lpeversion="1" /><inkscape:path-effect effect="spiro" id="path-effect851" is_visible="true" lpeversion="1" />
  <svg:style type="text/css" id="style2">
   
    .fil0 {fill:#EF7F1A;fill-rule:nonzero}
   
  </svg:style>
 <inkscape:path-effect effect="spiro" id="path-effect1214" is_visible="true" lpeversion="1" /><inkscape:path-effect effect="spiro" id="path-effect1195" is_visible="true" lpeversion="1" /><inkscape:path-effect effect="spiro" id="path-effect992" is_visible="true" lpeversion="1" /><inkscape:path-effect effect="spiro" id="path-effect1060" is_visible="true" lpeversion="1" /><inkscape:path-effect effect="spiro" id="path-effect1047" is_visible="true" lpeversion="1" /><inkscape:path-effect effect="spiro" id="path-effect1085" is_visible="true" lpeversion="1" /><inkscape:path-effect effect="spiro" id="path-effect1286" is_visible="true" lpeversion="1" /><inkscape:path-effect effect="spiro" id="path-effect117" is_visible="true" lpeversion="1" /></svg:defs>
 
<svg:g id="path858"><svg:path style="color:#000000;clip-rule:nonzero;fill:#1a5fb4;fill-rule:nonzero;stroke-linecap:round;stroke-linejoin:round;-inkscape-stroke:none;paint-order:fill stroke markers;shape-rendering:auto" d="M 153.14062,-189.92187 C 143.35959000000003,-189.98537000000002 134.87443000000002,-185.26665000000003 130.04297000000003,-180.73633 C 125.21151000000003,-176.20601000000002 122.79577000000002,-171.8075 121.00195000000002,-167.75781 C 99.16681600000003,-118.46328 71.91576900000001,-71.541307 39.914062000000015,-28.15625 C 21.304677000000016,-2.9273065000000003 1.0855875000000168,21.121474 -20.572265999999985,43.789062 C -27.605936999999983,51.150659000000005 -34.11779199999999,64.59769 -30.249999999999986,79.013672 C -26.382207999999984,93.429654 -13.808547999999984,101.93253 -3.937499999999986,104.70313 L 71.19726600000001,125.79102 C 91.64270800000001,131.52963 113.73035000000002,121.16521 122.38086000000001,101.77148 L 150.75781,38.150391 L 196.52344,107.06445 C 207.55119,123.67038 228.51497999999998,131.17076 247.57422,125.33008 L 318.30469,103.65625 C 327.95875,100.69778 340.67789,91.940234 344.03906,76.898437 C 347.40024,61.856641 339.7768,48.758804 332.44141,41.935547 C 305.52686,16.900094 280.83199,-10.541851000000001 258.76953000000003,-39.939453 C 229.24017000000003,-79.286483 204.40134000000003,-122.19445 184.97461000000004,-167.39648 C 183.22726000000003,-171.4622 180.86441000000005,-175.88193 176.09570000000005,-180.46094 C 171.32699000000005,-185.03994 162.92166000000006,-189.85841 153.14062000000004,-189.92186999999998 L 153.14062,-189.92187 M 185.58789000000002,-39.935547000000014 C 193.60573000000002,-27.673322000000013 201.98465000000002,-15.645044000000013 210.78125,-3.9238281000000157 C 227.00338,17.691704999999985 244.61863,38.231270999999985 263.29102,57.761718999999985 L 240.45508,64.75976599999998 L 179.69727,-26.728516000000013 L 185.58789000000002,-39.935547000000014 M 109.83398000000001,-23.472656000000015 L 111.45703000000002,-21.029297000000014 L 73.480469,64.113281 L 48.34375,57.058594 C 62.254563,41.040025 75.606264,24.534036 88.201172,7.4589844 C 95.6716,-2.6687549 102.85175,-13.004944 109.83398,-23.472656 L 109.83398000000001,-23.472656000000015" id="path5728" /></svg:g></svg:svg>

<svg:svg xmlns:cc="http://creativecommons.org/ns#" xmlns:dc="http://purl.org/dc/elements/1.1/" xmlns:inkscape="http://www.inkscape.org/namespaces/inkscape" xmlns:rdf="http://www.w3.org/1999/02/22-rdf-syntax-ns#" xmlns:sodipodi="http://sodipodi.sourceforge.net/DTD/sodipodi-0.dtd" xmlns:svg="http://www.w3.org/2000/svg" xml:space="preserve" width="1000" height="1000" version="1.1" style="clip-rule:evenodd;fill-rule:evenodd;image-rendering:optimizeQuality;shape-rendering:geometricPrecision;text-rendering:geometricPrecision" viewBox="0 0 1000 1000" id="svg10" sodipodi:docname="caret.svg" inkscape:version="1.1.1 (3bf5ae0d25, 2021-09-20)"><svg:text text-anchor="middle" x="153.92377" y="106.98389" id="top" inkscape:label="top" style="clip-rule:evenodd;fill-rule:evenodd;image-rendering:optimizeQuality;shape-rendering:geometricPrecision;text-rendering:geometricPrecision">✛</svg:text><svg:metadata id="metadata14"><rdf:RDF><cc:Work rdf:about=""><dc:format>image/svg+xml</dc:format><dc:type rdf:resource="http://purl.org/dc/dcmitype/StillImage" /><dc:title /></cc:Work></rdf:RDF></svg:metadata><sodipodi:namedview pagecolor="#ffffff" bordercolor="#666666" borderopacity="1" objecttolerance="10" gridtolerance="10" guidetolerance="10" inkscape:pageopacity="0" inkscape:pageshadow="2" inkscape:window-width="1920" inkscape:window-height="1009" id="namedview12" showgrid="false" inkscape:zoom="1.2005384" inkscape:cx="92.874997" inkscape:cy="84.128921" inkscape:window-x="0" inkscape:window-y="60" inkscape:window-maximized="1" inkscape:current-layer="svg10" showguides="true" inkscape:guide-bbox="true" inkscape:document-rotation="0" inkscape:pagecheckerboard="0"><sodipodi:guide position="0,1000" orientation="0,1" id="guide16" inkscape:label="" inkscape:locked="true" inkscape:color="rgb(0,0,255)" /><sodipodi:guide position="1763.3122,2036.1693" orientation="1000,0" id="guide18" /><sodipodi:guide position="0,200" orientation="0,1" id="guide20" inkscape:label="base" inkscape:locked="true" inkscape:color="rgb(0,0,255)" /><inkscape:grid type="xygrid" id="grid24" originx="-473.37552" originy="-489.69235" /><sodipodi:guide position="0,0" orientation="0,1" id="guide34" inkscape:label="bottom" inkscape:locked="true" inkscape:color="rgb(0,0,255)" /><sodipodi:guide position="225.05109,1693.3186" orientation="0,1" id="guide44" inkscape:label="" inkscape:locked="false" inkscape:color="rgb(0,0,255)" /><sodipodi:guide position="0,900" orientation="0,1" id="guide46" inkscape:label="" inkscape:locked="true" inkscape:color="rgb(0,0,255)" /><sodipodi:guide position="315.41807,1130.6747" orientation="1,0" id="guide841" inkscape:label="width" />    <sodipodi:guide position="-210.85892,799.74293" orientation="0,-1" id="guide856" /></sodipodi:namedview>
 <svg:defs id="defs4"><inkscape:path-effect effect="fillet_chamfer" id="path-effect861" is_visible="true" lpeversion="1" satellites_param="F,0,0,1,0,11.442237,0,1 @ F,0,1,1,0,11.442237,0,1 @ F,0,0,1,0,0,0,1 @ F,0,0,1,0,0,0,1 @ F,0,1,1,0,11.442237,0,1 @ F,0,1,1,0,11.442237,0,1 @ F,0,0,1,0,0,0,1 @ F,0,1,1,0,11.442237,0,1 @ F,0,0,1,0,0,0,1" unit="px" method="auto" mode="F" radius="0" chamfer_steps="1" flexible="false" use_knot_distance="true" apply_no_radius="true" apply_with_radius="true" only_selected="false" hide_knots="false" /><inkscape:path-effect effect="fillet_chamfer" id="path-effect862" is_visible="true" lpeversion="1" satellites_param="F,0,0,1,0,25.783993,0,1 @ F,0,0,1,0,26.579387,0,1 @ F,0,0,1,0,0,0,1 @ F,0,0,1,0,27.57576,0,1 @ F,0,0,1,0,29.413045,0,1 @ F,0,0,1,0,0,0,1 @ F,0,0,1,0,39.985442,0,1 @ F,0,0,1,0,0,0,1" unit="px" method="auto" mode="F" radius="0" chamfer_steps="1" flexible="false" use_knot_distance="true" apply_no_radius="true" apply_with_radius="true" only_selected="true" hide_knots="false" /><inkscape:path-effect effect="spiro" id="path-effect860" is_visible="true" lpeversion="1" /><inkscape:path-effect effect="spiro" id="path-effect857" is_visible="true" lpeversion="1" /><inkscape:path-effect effect="spiro" id="path-effect137" is_visible="true" lpeversion="1" /><inkscape:path-effect effect="spiro" id="path-effect133" is_visible="true" lpeversion="1" /><inkscape:path-effect effect="spiro" id="path-effect114" is_visible="true" lpeversion="1" /><inkscape:path-effect effect="spiro" id="path-effect853" is_visible="true" lpeversion="1" /><inkscape:path-effect effect="spiro" id="path-effect928" is_visible="true" lpeversion="1" /><inkscape:path-effect effect="spiro" id="path-effect921" is_visible="true" lpeversion="1" /><inkscape:path-effect effect="spiro" id="path-effect917" is_visible="true" lpeversion="1" /><inkscape:path-effect effect="spiro" id="path-effect849" is_visible="true" lpeversion="1" /><inkscape:path-effect effect="spiro" id="path-effect851" is_visible="true" lpeversion="1" />
  <svg:style type="text/css" id="style2">
   
    .fil0 {fill:#EF7F1A;fill-rule:nonzero}
   
  </svg:style>
 <inkscape:path-effect effect="spiro" id="path-effect1214" is_visible="true" lpeversion="1" /><inkscape:path-effect effect="spiro" id="path-effect1195" is_visible="true" lpeversion="1" /><inkscape:path-effect effect="spiro" id="path-effect992" is_visible="true" lpeversion="1" /><inkscape:path-effect effect="spiro" id="path-effect1060" is_visible="true" lpeversion="1" /><inkscape:path-effect effect="spiro" id="path-effect1047" is_visible="true" lpeversion="1" /><inkscape:path-effect effect="spiro" id="path-effect1085" is_visible="true" lpeversion="1" /><inkscape:path-effect effect="spiro" id="path-effect1286" is_visible="true" lpeversion="1" /><inkscape:path-effect effect="spiro" id="path-effect117" is_visible="true" lpeversion="1" /></svg:defs>
 
<svg:g id="path858"><svg:path style="color:#000000;clip-rule:nonzero;fill:#1a5fb4;fill-rule:nonzero;stroke-linecap:round;stroke-linejoin:round;-inkscape-stroke:none;shape-rendering:auto" d="m 153.14062,-189.92187 c -9.78103,-0.0635 -18.26619,4.65522 -23.09765,9.18554 -4.83146,4.53032 -7.2472,8.92883 -9.04102,12.97852 -21.835134,49.29453 -49.086181,96.216503 -81.087888,139.60156 -18.609385,25.2289435 -38.8284745,49.277724 -60.486328,71.945312 -7.033671,7.361597 -13.545526,20.808628 -9.677734,35.22461 3.867792,14.415982 16.441452,22.918858 26.3125,25.689458 l 75.134766,21.08789 c 20.445442,5.73861 42.533084,-4.62581 51.183594,-24.01954 l 28.37695,-63.621089 45.76563,68.914059 c 11.02775,16.60593 31.99154,24.10631 51.05078,18.26563 l 70.73047,-21.67383 c 9.65406,-2.95847 22.3732,-11.716016 25.73437,-26.757813 3.36118,-15.041796 -4.26226,-28.139633 -11.59765,-34.96289 -26.91455,-25.035453 -51.60942,-52.477398 -73.67188,-81.875 -29.52936,-39.34703 -54.36819,-82.254997 -73.79492,-127.457027 -1.74735,-4.06572 -4.1102,-8.48545 -8.87891,-13.06446 -4.76871,-4.579 -13.17404,-9.39747 -22.95508,-9.46093 z m 32.44727,149.986323 c 8.01784,12.262225 16.39676,24.290503 25.19336,36.0117189 16.22213,21.6155331 33.83738,42.1550991 52.50977,61.6855471 l -22.83594,6.998047 -60.75781,-91.488282 z m -75.75391,16.462891 1.62305,2.443359 L 73.480469,64.113281 48.34375,57.058594 C 62.254563,41.040025 75.606264,24.534036 88.201172,7.4589844 95.6716,-2.6687549 102.85175,-13.004944 109.83398,-23.472656 Z" id="path5716" /></svg:g></svg:svg>
